app/img/_src/main/howwework/work-6.svg

<svg width="60" height="60" viewBox="0 0 60 60" fill="none" xmlns="http://www.w3.org/2000/svg">
<path d="M26.129 51.2901H25.1613V49.3547C25.1613 49.219 25.1334 49.0858 25.0781 48.962L21.2072 40.2523C21.0512 39.9017 20.7058 39.6772 20.3226 39.6772H2.90323C2.36785 39.6772 1.93548 40.1096 1.93548 40.645V51.2901H0.967742C0.432365 51.2901 0 51.7225 0 52.2579V56.1289C0 56.6642 0.432365 57.0966 0.967742 57.0966H4.00847C4.44084 58.7623 5.94301 59.9998 7.74194 59.9998C9.54086 59.9998 11.043 58.7623 11.4754 57.0966H15.6214C16.0537 58.7623 17.5559 59.9998 19.3548 59.9998C21.1538 59.9998 22.6559 58.7623 23.0883 57.0966H26.129C26.6644 57.0966 27.0968 56.6642 27.0968 56.1289V52.2579C27.0968 51.7225 26.6644 51.2901 26.129 51.2901ZM7.74194 58.0643C6.67449 58.0643 5.80645 57.1963 5.80645 56.1289C5.80645 55.0614 6.67449 54.1934 7.74194 54.1934C8.80938 54.1934 9.67742 55.0614 9.67742 56.1289C9.67742 57.1963 8.80938 58.0643 7.74194 58.0643ZM19.3548 58.0643C18.2874 58.0643 17.4194 57.1963 17.4194 56.1289C17.4194 55.0614 18.2874 54.1934 19.3548 54.1934C20.4223 54.1934 21.2903 55.0614 21.2903 56.1289C21.2903 57.1963 20.4223 58.0643 19.3548 58.0643ZM25.1613 55.1611H23.0883C22.6559 53.4954 21.1538 52.2579 19.3548 52.2579C17.5559 52.2579 16.0537 53.4954 15.6214 55.1611H11.4754C11.043 53.4954 9.54086 52.2579 7.74194 52.2579C5.94301 52.2579 4.44084 53.4954 4.00847 55.1611H1.93548V53.2256H2.90323C3.4386 53.2256 3.87097 52.7933 3.87097 52.2579V41.6127H19.6946L23.2258 49.5597V52.2579C23.2258 52.7933 23.6582 53.2256 24.1935 53.2256H25.1613V55.1611Z" fill="url(#paint0_linear)"/>
<path d="M19.2863 44.157C19.1379 43.7893 18.783 43.5483 18.387 43.5483H14.5161C13.9807 43.5483 13.5483 43.9807 13.5483 44.5161V49.3548C13.5483 49.8902 13.9807 50.3225 14.5161 50.3225H20.3225C20.6439 50.3225 20.9439 50.1628 21.1239 49.8977C21.304 49.6326 21.3404 49.2938 21.2218 48.9957L19.2863 44.157ZM15.4838 48.387V45.4838H17.7321L18.8931 48.387H15.4838Z" fill="url(#paint1_linear)"/>
<path d="M10.6451 43.5483H6.77414C6.23876 43.5483 5.8064 43.9807 5.8064 44.5161V49.3548C5.8064 49.8902 6.23876 50.3225 6.77414 50.3225H10.6451C11.1805 50.3225 11.6128 49.8902 11.6128 49.3548V44.5161C11.6128 43.9807 11.1805 43.5483 10.6451 43.5483ZM9.67736 48.387H7.74188V45.4838H9.67736V48.387Z" fill="url(#paint2_linear)"/>
<path d="M16.4516 36.7743H45.4839C48.1518 36.7743 50.3226 38.9451 50.3226 41.613C50.3226 44.2809 48.1518 46.4517 45.4839 46.4517H29.0323V48.3872H45.4839C49.2183 48.3872 52.2581 45.3474 52.2581 41.613C52.2581 37.8786 49.2183 34.8388 45.4839 34.8388H16.4516C8.44742 34.8388 1.93548 28.3269 1.93548 20.3227C1.93548 12.3185 8.44742 5.80658 16.4516 5.80658H44.5161V3.87109H16.4516C7.37998 3.87109 0 11.2511 0 20.3227C0 29.3943 7.37998 36.7743 16.4516 36.7743Z" fill="url(#paint3_linear)"/>
<path d="M45.4839 27.0967H30.9677V24.9901C32.6334 24.4491 33.871 22.5708 33.871 20.3225C33.871 17.6546 32.1349 15.4838 30 15.4838C27.8651 15.4838 26.129 17.6546 26.129 20.3225C26.129 22.5708 27.3666 24.4481 29.0323 24.9901V27.0967H21.2903V24.9901C22.956 24.4491 24.1936 22.5708 24.1936 20.3225C24.1936 17.6546 22.4575 15.4838 20.3226 15.4838C18.1877 15.4838 16.4516 17.6546 16.4516 20.3225C16.4516 22.5708 17.6892 24.4481 19.3548 24.9901V27.0967H16.4516C12.7172 27.0967 9.67743 24.0569 9.67743 20.3225C9.67743 16.5881 12.7172 13.5483 16.4516 13.5483H44.5161V11.6128H16.4516C11.6488 11.6128 7.74194 15.5197 7.74194 20.3225C7.74194 25.1253 11.6488 29.0321 16.4516 29.0321H45.4839C52.4206 29.0321 58.0645 34.676 58.0645 41.6128C58.0645 48.5495 52.4206 54.1934 45.4839 54.1934H29.0323V56.1289H45.4839C53.4881 56.1289 60 49.617 60 41.6128C60 33.6086 53.4881 27.0967 45.4839 27.0967ZM28.0645 20.3225C28.0645 18.7489 28.951 17.4192 30 17.4192C31.049 17.4192 31.9355 18.7489 31.9355 20.3225C31.9355 21.896 31.049 23.2257 30 23.2257C28.951 23.2257 28.0645 21.896 28.0645 20.3225ZM18.3871 20.3225C18.3871 18.7489 19.2736 17.4192 20.3226 17.4192C21.3716 17.4192 22.2581 18.7489 22.2581 20.3225C22.2581 21.896 21.3716 23.2257 20.3226 23.2257C19.2736 23.2257 18.3871 21.896 18.3871 20.3225Z" fill="url(#paint4_linear)"/>
<path d="M41.6129 7.7417H44.5161V9.67718H41.6129V7.7417Z" fill="url(#paint5_linear)"/>
<path d="M33.871 7.7417H37.7419V9.67718H33.871V7.7417Z" fill="url(#paint6_linear)"/>
<path d="M26.129 7.7417H30V9.67718H26.129V7.7417Z" fill="url(#paint7_linear)"/>
<path d="M18.3871 7.7417H22.2581V9.67718H18.3871V7.7417Z" fill="url(#paint8_linear)"/>
<path d="M11.13 11.1014C12.2296 10.4653 13.4218 10.0358 14.6768 9.82553L14.3555 7.9165C12.8718 8.166 11.4608 8.67302 10.1604 9.42718L11.13 11.1014Z" fill="url(#paint9_linear)"/>
<path d="M6.23222 12.9834C5.31882 14.2531 4.65681 15.665 4.26697 17.1776L6.14244 17.6614C6.47227 16.3809 7.0308 15.1868 7.80386 14.1137L6.23222 12.9834Z" fill="url(#paint10_linear)"/>
<path d="M3.91345 21.3697C4.03442 22.8279 4.40394 24.2399 5.01209 25.5648L6.77132 24.7577C6.2572 23.6379 5.94486 22.4438 5.84327 21.2109L3.91345 21.3697Z" fill="url(#paint11_linear)"/>
<path d="M9.41135 28.3066L8.12891 29.7583C9.34567 30.8314 10.734 31.6493 12.2583 32.1871L12.9029 30.3631C11.6148 29.9071 10.4401 29.2153 9.41135 28.3066Z" fill="url(#paint12_linear)"/>
<path d="M16.4517 30.9678H20.3226V32.9033H16.4517V30.9678Z" fill="url(#paint13_linear)"/>
<path d="M24.1936 30.9678H28.0646V32.9033H24.1936V30.9678Z" fill="url(#paint14_linear)"/>
<path d="M31.9355 30.9678H35.8065V32.9033H31.9355V30.9678Z" fill="url(#paint15_linear)"/>
<path d="M39.6775 30.9678H43.5485V32.9033H39.6775V30.9678Z" fill="url(#paint16_linear)"/>
<path d="M51.873 33.0968C50.6005 32.1404 49.1664 31.4958 47.6122 31.1807L47.229 33.0783C48.4987 33.3354 49.6696 33.8632 50.7115 34.6448L51.873 33.0968Z" fill="url(#paint17_linear)"/>
<path d="M55.2425 37.355L53.4696 38.129C53.9497 39.2295 54.1935 40.4014 54.1935 41.613H56.129C56.129 40.1335 55.8308 38.7003 55.2425 37.355Z" fill="url(#paint18_linear)"/>
<path d="M50.7096 48.5806L51.872 50.1287C53.343 49.0229 54.5083 47.5519 55.2416 45.8716L53.4696 45.0967C52.8686 46.4708 51.9145 47.6767 50.7096 48.5806Z" fill="url(#paint19_linear)"/>
<path d="M43.5483 50.3228V52.2583H45.4838C46.1969 52.2583 46.9132 52.1864 47.6112 52.0451L47.2275 50.1475C46.6557 50.2637 46.0683 50.3228 45.4838 50.3228H43.5483Z" fill="url(#paint20_linear)"/>
<path d="M35.8064 50.3228H39.6774V52.2582H35.8064V50.3228Z" fill="url(#paint21_linear)"/>
<path d="M29.0322 50.3228H31.9355V52.2582H29.0322V50.3228Z" fill="url(#paint22_linear)"/>
<path d="M52.2581 13.4709V23.2258H54.1936V13.4709C57.4706 12.9988 60 10.1797 60 6.77419C60 3.03979 56.9603 0 53.2259 0C49.4914 0 46.4517 3.03979 46.4517 6.77419C46.4517 10.1797 48.9811 12.9988 52.2581 13.4709ZM53.2259 1.93548C55.8938 1.93548 58.0646 4.10629 58.0646 6.77419C58.0646 9.4421 55.8938 11.6129 53.2259 11.6129C50.5579 11.6129 48.3871 9.4421 48.3871 6.77419C48.3871 4.10629 50.5579 1.93548 53.2259 1.93548Z" fill="url(#paint23_linear)"/>
<path d="M56.1291 6.77441H54.1936C54.1936 7.30837 53.7598 7.74216 53.2258 7.74216V9.67764C54.8263 9.67764 56.1291 8.37487 56.1291 6.77441Z" fill="url(#paint24_linear)"/>
<defs>
<linearGradient id="paint0_linear" x1="13.5484" y1="39.6772" x2="13.5484" y2="59.9998" gradientUnits="userSpaceOnUse">
<stop stop-color="#8888D3"/>
<stop offset="1" stop-color="#5E60A3"/>
</linearGradient>
<linearGradient id="paint1_linear" x1="17.4194" y1="43.5483" x2="17.4194" y2="50.3225" gradientUnits="userSpaceOnUse">
<stop stop-color="#8888D3"/>
<stop offset="1" stop-color="#5E60A3"/>
</linearGradient>
<linearGradient id="paint2_linear" x1="8.70962" y1="43.5483" x2="8.70962" y2="50.3225" gradientUnits="userSpaceOnUse">
<stop stop-color="#8888D3"/>
<stop offset="1" stop-color="#5E60A3"/>
</linearGradient>
<linearGradient id="paint3_linear" x1="26.129" y1="3.87109" x2="26.129" y2="48.3872" gradientUnits="userSpaceOnUse">
<stop stop-color="#8888D3"/>
<stop offset="1" stop-color="#5E60A3"/>
</linearGradient>
<linearGradient id="paint4_linear" x1="33.871" y1="11.6128" x2="33.871" y2="56.1289" gradientUnits="userSpaceOnUse">
<stop stop-color="#8888D3"/>
<stop offset="1" stop-color="#5E60A3"/>
</linearGradient>
<linearGradient id="paint5_linear" x1="43.0645" y1="7.7417" x2="43.0645" y2="9.67718" gradientUnits="userSpaceOnUse">
<stop stop-color="#8888D3"/>
<stop offset="1" stop-color="#5E60A3"/>
</linearGradient>
<linearGradient id="paint6_linear" x1="35.8065" y1="7.7417" x2="35.8065" y2="9.67718" gradientUnits="userSpaceOnUse">
<stop stop-color="#8888D3"/>
<stop offset="1" stop-color="#5E60A3"/>
</linearGradient>
<linearGradient id="paint7_linear" x1="28.0645" y1="7.7417" x2="28.0645" y2="9.67718" gradientUnits="userSpaceOnUse">
<stop stop-color="#8888D3"/>
<stop offset="1" stop-color="#5E60A3"/>
</linearGradient>
<linearGradient id="paint8_linear" x1="20.3226" y1="7.7417" x2="20.3226" y2="9.67718" gradientUnits="userSpaceOnUse">
<stop stop-color="#8888D3"/>
<stop offset="1" stop-color="#5E60A3"/>
</linearGradient>
<linearGradient id="paint9_linear" x1="12.4186" y1="7.9165" x2="12.4186" y2="11.1014" gradientUnits="userSpaceOnUse">
<stop stop-color="#8888D3"/>
<stop offset="1" stop-color="#5E60A3"/>
</linearGradient>
<linearGradient id="paint10_linear" x1="6.03541" y1="12.9834" x2="6.03541" y2="17.6614" gradientUnits="userSpaceOnUse">
<stop stop-color="#8888D3"/>
<stop offset="1" stop-color="#5E60A3"/>
</linearGradient>
<linearGradient id="paint11_linear" x1="5.34238" y1="21.2109" x2="5.34238" y2="25.5648" gradientUnits="userSpaceOnUse">
<stop stop-color="#8888D3"/>
<stop offset="1" stop-color="#5E60A3"/>
</linearGradient>
<linearGradient id="paint12_linear" x1="10.5159" y1="28.3066" x2="10.5159" y2="32.1871" gradientUnits="userSpaceOnUse">
<stop stop-color="#8888D3"/>
<stop offset="1" stop-color="#5E60A3"/>
</linearGradient>
<linearGradient id="paint13_linear" x1="18.3871" y1="30.9678" x2="18.3871" y2="32.9033" gradientUnits="userSpaceOnUse">
<stop stop-color="#8888D3"/>
<stop offset="1" stop-color="#5E60A3"/>
</linearGradient>
<linearGradient id="paint14_linear" x1="26.1291" y1="30.9678" x2="26.1291" y2="32.9033" gradientUnits="userSpaceOnUse">
<stop stop-color="#8888D3"/>
<stop offset="1" stop-color="#5E60A3"/>
</linearGradient>
<linearGradient id="paint15_linear" x1="33.871" y1="30.9678" x2="33.871" y2="32.9033" gradientUnits="userSpaceOnUse">
<stop stop-color="#8888D3"/>
<stop offset="1" stop-color="#5E60A3"/>
</linearGradient>
<linearGradient id="paint16_linear" x1="41.613" y1="30.9678" x2="41.613" y2="32.9033" gradientUnits="userSpaceOnUse">
<stop stop-color="#8888D3"/>
<stop offset="1" stop-color="#5E60A3"/>
</linearGradient>
<linearGradient id="paint17_linear" x1="49.551" y1="31.1807" x2="49.551" y2="34.6448" gradientUnits="userSpaceOnUse">
<stop stop-color="#8888D3"/>
<stop offset="1" stop-color="#5E60A3"/>
</linearGradient>
<linearGradient id="paint18_linear" x1="54.7993" y1="37.355" x2="54.7993" y2="41.613" gradientUnits="userSpaceOnUse">
<stop stop-color="#8888D3"/>
<stop offset="1" stop-color="#5E60A3"/>
</linearGradient>
<linearGradient id="paint19_linear" x1="52.9756" y1="45.0967" x2="52.9756" y2="50.1287" gradientUnits="userSpaceOnUse">
<stop stop-color="#8888D3"/>
<stop offset="1" stop-color="#5E60A3"/>
</linearGradient>
<linearGradient id="paint20_linear" x1="45.5797" y1="50.1475" x2="45.5797" y2="52.2583" gradientUnits="userSpaceOnUse">
<stop stop-color="#8888D3"/>
<stop offset="1" stop-color="#5E60A3"/>
</linearGradient>
<linearGradient id="paint21_linear" x1="37.7419" y1="50.3228" x2="37.7419" y2="52.2582" gradientUnits="userSpaceOnUse">
<stop stop-color="#8888D3"/>
<stop offset="1" stop-color="#5E60A3"/>
</linearGradient>
<linearGradient id="paint22_linear" x1="30.4838" y1="50.3228" x2="30.4838" y2="52.2582" gradientUnits="userSpaceOnUse">
<stop stop-color="#8888D3"/>
<stop offset="1" stop-color="#5E60A3"/>
</linearGradient>
<linearGradient id="paint23_linear" x1="53.2259" y1="0" x2="53.2259" y2="23.2258" gradientUnits="userSpaceOnUse">
<stop stop-color="#8888D3"/>
<stop offset="1" stop-color="#5E60A3"/>
</linearGradient>
<linearGradient id="paint24_linear" x1="54.6774" y1="6.77441" x2="54.6774" y2="9.67764" gradientUnits="userSpaceOnUse">
<stop stop-color="#8888D3"/>
<stop offset="1" stop-color="#5E60A3"/>
</linearGradient>
</defs>
</svg>

<svg width="60" height="60" fill="none" xmlns="http://www.w3.org/2000/svg"><path d="M26.129 51.29h-.968v-1.935a.96.96 0 00-.083-.393l-3.87-8.71a.967.967 0 00-.885-.575H2.903a.967.967 0 00-.968.968V51.29H.968a.967.967 0 00-.968.968v3.87c0 .536.432.969.968.969h3.04C4.441 58.762 5.943 60 7.742 60s3.301-1.238 3.733-2.903h4.146C16.054 58.762 17.556 60 19.355 60s3.3-1.238 3.733-2.903h3.041a.967.967 0 00.968-.968v-3.871a.967.967 0 00-.968-.968zM7.742 58.064a1.937 1.937 0 01-1.936-1.935c0-1.068.868-1.936 1.936-1.936 1.067 0 1.935.868 1.935 1.936a1.937 1.937 0 01-1.935 1.935zm11.613 0a1.937 1.937 0 01-1.936-1.935c0-1.068.868-1.936 1.936-1.936 1.067 0 1.935.868 1.935 1.936a1.937 1.937 0 01-1.935 1.935zm5.806-2.903h-2.073c-.432-1.666-1.934-2.903-3.733-2.903-1.8 0-3.301 1.237-3.734 2.903h-4.146c-.432-1.666-1.934-2.903-3.733-2.903-1.799 0-3.301 1.237-3.734 2.903H1.935v-1.935h.968a.967.967 0 00.968-.968V41.613h15.824l3.53 7.947v2.698c0 .535.433.968.968.968h.968v1.935z" fill="url(#paint0_linear)"/><path d="M19.286 44.157a.97.97 0 00-.899-.609h-3.87a.967.967 0 00-.969.968v4.839c0 .535.433.968.968.968h5.807a.97.97 0 00.899-1.327l-1.936-4.839zm-3.802 4.23v-2.903h2.248l1.161 2.903h-3.41z" fill="url(#paint1_linear)"/><path d="M10.645 43.548h-3.87a.967.967 0 00-.969.968v4.839c0 .535.433.968.968.968h3.871a.966.966 0 00.968-.968v-4.839a.967.967 0 00-.968-.968zm-.968 4.839H7.742v-2.903h1.935v2.903z" fill="url(#paint2_linear)"/><path d="M16.452 36.774h29.032a4.844 4.844 0 014.839 4.839 4.844 4.844 0 01-4.84 4.839h-16.45v1.935h16.45a6.783 6.783 0 006.775-6.774 6.783 6.783 0 00-6.774-6.774H16.452c-8.005 0-14.517-6.512-14.517-14.516 0-8.005 6.512-14.516 14.517-14.516h28.064V3.87H16.452C7.38 3.871 0 11.251 0 20.323c0 9.071 7.38 16.451 16.452 16.451z" fill="url(#paint3_linear)"/><path d="M45.484 27.097H30.968V24.99c1.665-.54 2.903-2.42 2.903-4.667 0-2.668-1.736-4.84-3.871-4.84s-3.871 2.172-3.871 4.84c0 2.248 1.238 4.125 2.903 4.667v2.107H21.29V24.99c1.666-.54 2.904-2.42 2.904-4.667 0-2.668-1.736-4.84-3.871-4.84s-3.871 2.172-3.871 4.84c0 2.248 1.237 4.125 2.903 4.667v2.107h-2.903a6.783 6.783 0 01-6.775-6.774 6.783 6.783 0 016.775-6.775h28.064v-1.935H16.452c-4.803 0-8.71 3.907-8.71 8.71 0 4.802 3.907 8.71 8.71 8.71h29.032c6.937 0 12.58 5.643 12.58 12.58s-5.643 12.58-12.58 12.58H29.032v1.936h16.452C53.488 56.129 60 49.617 60 41.613c0-8.004-6.512-14.516-14.516-14.516zm-17.42-6.774c0-1.574.887-2.904 1.936-2.904s1.936 1.33 1.936 2.904c0 1.573-.887 2.903-1.936 2.903s-1.936-1.33-1.936-2.903zm-9.677 0c0-1.574.887-2.904 1.936-2.904s1.935 1.33 1.935 2.904c0 1.573-.886 2.903-1.935 2.903-1.05 0-1.936-1.33-1.936-2.903z" fill="url(#paint4_linear)"/><path d="M41.613 7.742h2.903v1.935h-2.903V7.742z" fill="url(#paint5_linear)"/><path d="M33.871 7.742h3.87v1.935h-3.87V7.742z" fill="url(#paint6_linear)"/><path d="M26.129 7.742H30v1.935h-3.871V7.742z" fill="url(#paint7_linear)"/><path d="M18.387 7.742h3.871v1.935h-3.87V7.742z" fill="url(#paint8_linear)"/><path d="M11.13 11.101a10.533 10.533 0 013.547-1.275l-.322-1.91c-1.483.25-2.894.757-4.195 1.511l.97 1.674z" fill="url(#paint9_linear)"/><path d="M6.232 12.983a12.499 12.499 0 00-1.965 4.195l1.875.483c.33-1.28.889-2.474 1.662-3.547l-1.572-1.13z" fill="url(#paint10_linear)"/><path d="M3.913 21.37c.121 1.458.49 2.87 1.1 4.195l1.758-.807a10.555 10.555 0 01-.928-3.547l-1.93.159z" fill="url(#paint11_linear)"/><path d="M9.411 28.307L8.13 29.758a12.508 12.508 0 004.13 2.43l.644-1.825a10.59 10.59 0 01-3.492-2.056z" fill="url(#paint12_linear)"/><path d="M16.452 30.968h3.87v1.935h-3.87v-1.935z" fill="url(#paint13_linear)"/><path d="M24.194 30.968h3.87v1.935h-3.87v-1.935z" fill="url(#paint14_linear)"/><path d="M31.936 30.968h3.87v1.935h-3.87v-1.935z" fill="url(#paint15_linear)"/><path d="M39.678 30.968h3.87v1.935h-3.87v-1.935z" fill="url(#paint16_linear)"/><path d="M51.873 33.097a10.518 10.518 0 00-4.26-1.916l-.384 1.897c1.27.257 2.44.785 3.483 1.567l1.161-1.548z" fill="url(#paint17_linear)"/><path d="M55.242 37.355l-1.772.774a8.66 8.66 0 01.724 3.484h1.935c0-1.48-.298-2.913-.886-4.258z" fill="url(#paint18_linear)"/><path d="M50.71 48.58l1.162 1.549a10.684 10.684 0 003.37-4.257l-1.772-.775a8.748 8.748 0 01-2.76 3.484z" fill="url(#paint19_linear)"/><path d="M43.548 50.323v1.935h1.936c.713 0 1.43-.072 2.127-.213l-.383-1.898a8.78 8.78 0 01-1.744.176h-1.936z" fill="url(#paint20_linear)"/><path d="M35.806 50.323h3.871v1.935h-3.87v-1.935z" fill="url(#paint21_linear)"/><path d="M29.032 50.323h2.904v1.935h-2.904v-1.935z" fill="url(#paint22_linear)"/><path d="M52.258 13.47v9.756h1.936V13.47C57.47 12.999 60 10.18 60 6.774A6.783 6.783 0 0053.226 0a6.783 6.783 0 00-6.774 6.774c0 3.406 2.53 6.225 5.806 6.697zm.968-11.535a4.844 4.844 0 014.839 4.84 4.844 4.844 0 01-4.84 4.838 4.844 4.844 0 01-4.838-4.839 4.844 4.844 0 014.839-4.839z" fill="url(#paint23_linear)"/><path d="M56.13 6.774h-1.936a.968.968 0 01-.968.968v1.936c1.6 0 2.903-1.303 2.903-2.904z" fill="url(#paint24_linear)"/><defs><linearGradient id="paint12_linear" x1="10.516" y1="28.307" x2="10.516" y2="32.187" gradientUnits="userSpaceOnUse"><stop stop-color="#8888D3"/><stop offset="1" stop-color="#5E60A3"/></linearGradient><linearGradient id="paint0_linear" x1="13.548" y1="39.677" x2="13.548" y2="60" gradientUnits="userSpaceOnUse"><stop stop-color="#8888D3"/><stop offset="1" stop-color="#5E60A3"/></linearGradient><linearGradient id="paint2_linear" x1="8.71" y1="43.548" x2="8.71" y2="50.322" gradientUnits="userSpaceOnUse"><stop stop-color="#8888D3"/><stop offset="1" stop-color="#5E60A3"/></linearGradient><linearGradient id="paint3_linear" x1="26.129" y1="3.871" x2="26.129" y2="48.387" gradientUnits="userSpaceOnUse"><stop stop-color="#8888D3"/><stop offset="1" stop-color="#5E60A3"/></linearGradient><linearGradient id="paint4_linear" x1="33.871" y1="11.613" x2="33.871" y2="56.129" gradientUnits="userSpaceOnUse"><stop stop-color="#8888D3"/><stop offset="1" stop-color="#5E60A3"/></linearGradient><linearGradient id="paint5_linear" x1="43.065" y1="7.742" x2="43.065" y2="9.677" gradientUnits="userSpaceOnUse"><stop stop-color="#8888D3"/><stop offset="1" stop-color="#5E60A3"/></linearGradient><linearGradient id="paint6_linear" x1="35.806" y1="7.742" x2="35.806" y2="9.677" gradientUnits="userSpaceOnUse"><stop stop-color="#8888D3"/><stop offset="1" stop-color="#5E60A3"/></linearGradient><linearGradient id="paint7_linear" x1="28.064" y1="7.742" x2="28.064" y2="9.677" gradientUnits="userSpaceOnUse"><stop stop-color="#8888D3"/><stop offset="1" stop-color="#5E60A3"/></linearGradient><linearGradient id="paint8_linear" x1="20.323" y1="7.742" x2="20.323" y2="9.677" gradientUnits="userSpaceOnUse"><stop stop-color="#8888D3"/><stop offset="1" stop-color="#5E60A3"/></linearGradient><linearGradient id="paint9_linear" x1="12.419" y1="7.917" x2="12.419" y2="11.101" gradientUnits="userSpaceOnUse"><stop stop-color="#8888D3"/><stop offset="1" stop-color="#5E60A3"/></linearGradient><linearGradient id="paint10_linear" x1="6.035" y1="12.983" x2="6.035" y2="17.661" gradientUnits="userSpaceOnUse"><stop stop-color="#8888D3"/><stop offset="1" stop-color="#5E60A3"/></linearGradient><linearGradient id="paint11_linear" x1="5.342" y1="21.211" x2="5.342" y2="25.565" gradientUnits="userSpaceOnUse"><stop stop-color="#8888D3"/><stop offset="1" stop-color="#5E60A3"/></linearGradient><linearGradient id="paint1_linear" x1="17.419" y1="43.548" x2="17.419" y2="50.322" gradientUnits="userSpaceOnUse"><stop stop-color="#8888D3"/><stop offset="1" stop-color="#5E60A3"/></linearGradient><linearGradient id="paint13_linear" x1="18.387" y1="30.968" x2="18.387" y2="32.903" gradientUnits="userSpaceOnUse"><stop stop-color="#8888D3"/><stop offset="1" stop-color="#5E60A3"/></linearGradient><linearGradient id="paint14_linear" x1="26.129" y1="30.968" x2="26.129" y2="32.903" gradientUnits="userSpaceOnUse"><stop stop-color="#8888D3"/><stop offset="1" stop-color="#5E60A3"/></linearGradient><linearGradient id="paint15_linear" x1="33.871" y1="30.968" x2="33.871" y2="32.903" gradientUnits="userSpaceOnUse"><stop stop-color="#8888D3"/><stop offset="1" stop-color="#5E60A3"/></linearGradient><linearGradient id="paint16_linear" x1="41.613" y1="30.968" x2="41.613" y2="32.903" gradientUnits="userSpaceOnUse"><stop stop-color="#8888D3"/><stop offset="1" stop-color="#5E60A3"/></linearGradient><linearGradient id="paint17_linear" x1="49.551" y1="31.181" x2="49.551" y2="34.645" gradientUnits="userSpaceOnUse"><stop stop-color="#8888D3"/><stop offset="1" stop-color="#5E60A3"/></linearGradient><linearGradient id="paint18_linear" x1="54.799" y1="37.355" x2="54.799" y2="41.613" gradientUnits="userSpaceOnUse"><stop stop-color="#8888D3"/><stop offset="1" stop-color="#5E60A3"/></linearGradient><linearGradient id="paint19_linear" x1="52.976" y1="45.097" x2="52.976" y2="50.129" gradientUnits="userSpaceOnUse"><stop stop-color="#8888D3"/><stop offset="1" stop-color="#5E60A3"/></linearGradient><linearGradient id="paint20_linear" x1="45.58" y1="50.148" x2="45.58" y2="52.258" gradientUnits="userSpaceOnUse"><stop stop-color="#8888D3"/><stop offset="1" stop-color="#5E60A3"/></linearGradient><linearGradient id="paint21_linear" x1="37.742" y1="50.323" x2="37.742" y2="52.258" gradientUnits="userSpaceOnUse"><stop stop-color="#8888D3"/><stop offset="1" stop-color="#5E60A3"/></linearGradient><linearGradient id="paint22_linear" x1="30.484" y1="50.323" x2="30.484" y2="52.258" gradientUnits="userSpaceOnUse"><stop stop-color="#8888D3"/><stop offset="1" stop-color="#5E60A3"/></linearGradient><linearGradient id="paint23_linear" x1="53.226" y1="0" x2="53.226" y2="23.226" gradientUnits="userSpaceOnUse"><stop stop-color="#8888D3"/><stop offset="1" stop-color="#5E60A3"/></linearGradient><linearGradient id="paint24_linear" x1="54.677" y1="6.774" x2="54.677" y2="9.678" gradientUnits="userSpaceOnUse"><stop stop-color="#8888D3"/><stop offset="1" stop-color="#5E60A3"/></linearGradient></defs></svg>
